X:1
T:Puisqu'ainsi est  I
T:Puisqu'ainsi est  I
T:Nicolas Gombert
C:Nicolas Gombert
%%score [ 1 2 [ 3 4 ] ]
L:1/8
Q:1/4=80
M:2/2
K:C
V:1 treble nm="Superius" snm="S"
V:2 treble nm="Altus" snm="A"
V:3 treble-8 nm="Tenor 1" snm="T 1"
V:4 treble-8 nm="Tenor 2" snm="T 2"
V:1
 z4 e4- | e4 d4 | f4 e4 | z2 B2 d2 d2 | c2 A2 c2 B2- | B2 AG A2 B2- | BA A4 G2 | A8 | z8 | %9
w: Puis-|* qu'ain-|si est|que con- ti-|nu- e mon _|_ _ _ _ _|* * * mal-|heur||
 z2 A2 c3 d | e2 f2 g2 e2 | fd f4 e2- | ed d4 c2 | d8 | z8 | z8 | z2 f4 e2 | d4 c2 c2 | %18
w: et que ri-|gueur a prins pos-|ses- si- on _|_ _ _ de|moy,|||si tres|a- vant que|
 d2 e2 f2 d2 | e3 d c2 e2 | dc BA B4 | A4 z4 | c4 d2 f2 | e3 d c2 B2- | BA A4 G2 | A4 z2 A2 | %26
w: plai- sirs n'y ont|pla- * * *|* * * * c'en|riens,|que- plai- sirs|n'y _ _ ont|_ _ pla- c'en|riens, sou-|
 e2 e2 d2 c2 | f4 e4 | z2 A2 d2 d2 | c2 c2 d2 f2- | f2 e3 d d2 | e2 c2 d2 f2- | f2 e3 d d2 | %33
w: ve- nir me tra-|veil- le,|sou- ve- nir|me tra- veil- *||le, qui ne me|_ veult _ ce|
 e2 e2 e2 e2 | d2 A2 c4 | B4 z2 A2 | A2 A2 G2 D2 | F4 E2 e2 | f3 e d2 c2 | d4 z4 | z4 d4 | %41
w: bien, je lan- guis|en grant pai-|ne, je|lan- guis en grant|pai- ne sans|nul bien es- pe-|rer,|sans|
 e3 d c3 B/A/ | B2 B2 A4- | A4 z2 c2 | d4 e4 | A2 d2 c2 A2 | B2 d3 c c2 | d4 z2 c2 | d4 e4 | %49
w: nul bien es- * *|* pe- rer|_ si-|non la|mort qui trop m'y|faict _ _ tar-|der, si-|non la|
 A4 z4 | d4 c2 A2 | B2 d3 c c2 | d2 d2 f3 e |"^b""^b" dc BA B2 B2 | A8 |] %55
w: mort|qui trop m'y|faict _ _ tar-|der, [qui trop m'y|faict _ _ _ _ tar-|der.|
V:2
 A8 | G4 _B4 | A6 E2 | G2 G2 F2 G2 | A4 G4- | G2 D2 F4- | F2 D2 E3 D | C2 D2 A,2 D2 | F2 G2 A2 F2 | %9
w: Puis-|qu'ain- si|est que|con- ti- nu- e|mon _|_ _ _||* mal- heur, et|que ri- gueur a|
 G2 F2 E3 D | CB, D3 C C2 | D2 d4 c2- | c2 B2 A4 | z2 _B3 A A2 | G4 F2 F2 | G2 A2 B2 G2 | %16
w: prins pos- ses- *|si _ on _ de|moy, si tres|_ a- vant,|si _ tres|a- vant que|plai- sirs n'y ont|
 A3 G FE A2- | A2 G2 A4 | z2 C2 D2 F2 | E2 G2 A2 c2 | BA A4 G2 | E2 A4 G2 | A6 A2 | c3 B A2 G2 | %24
w: pla- * * * *|* c'en riens,|que plai- sirs|n'y ont _ _|_ _ pla- c'en|riens, que plai-|sirs n'y|ont _ _ pla-|
 F2 D2 E4 | z2 E2 A2 A2 | G2 A2 B2 A2- | AG AB c3 B/A/ | B2 A4 G2 | A8 | z4 A4 | c2 G2 A2 d2 | %32
w: * c'en riens,|sou- ve- nir|me tra- veil- *|||le|qui|ne me veult ce|
 c4 A2 A2 | A2 A2 G2 E2 | F4 E4 | G4 F4 | E6 B,2 | C2 D3 C C2 | D4 z2 A2 | _B3 A G2 F2 | %40
w: bien, je lan-|guis en grant _|pai- *||ne, en|_ grant _ pai-|ne sans|nul _ _ bien|
 E2 C3 B, B,2 | C2 G2 A2 A2 | G3 F E4 | D2 F2 G2 A2 | D2 A2 G2 E2 | F2 G3 F F2 | G2 A2 G2 E2 | %47
w: es- * * pe-|rer, sans nul bien|es- * pe-|rer si- non la|mort qui trop m'y|faict _ _ tar-|der, m'y faict _|
 F4 E4 | D2 A2 G2 E2 | FG AF G2 A2- | AG G4 F2 | G4 A4- | A2 _B2 A2 B2 | BA GF G2 G2 | F8 |] %55
w: tar- der,|si- non la mort|_ _ _ _ _ _||* qui|_ trop m'y faict|_ _ _ _ _ tar-|der.|
V:3
 z8 | z8 | z4 e4- | e4 d4 | f4 e4- | e2 B2 d2 d2 | c2 A2 B2 B2 | A4 z2 A2 | c2 d2 e2 c2 | %9
w: ||Puis-|* qu'ain-|si est|_ que con- ti-|nu- e mon mal-|heur, et|que ri- gueur a|
 d2 c2 c2 BA | G2 A3 G G2 | A4 a4 | g2 f2 e4 | z4 z2 f2- | fe e2 d4 | c2 c2 d2 e2 | f3 e d2 c2 | %17
w: prins pos- ses- si- *|* on _ de|moy, si|tres a- vant,|si|_ _ tres a-|vant que plai- sirs|n'y _ _ ont|
"^b" B4 A3 G | AB c3 B BA | c4 A4 | z8 | z2 c2 d4 | f2 e2 f3 g | a2 g2 e3 d | c2 BA B4 | A8 | %26
w: pla- * *||c'en riens,||que plai-|sirs n'y ont _|_ pla- * *|* * * c'en|riens,|
 z4 z2 A2 | d2 d2 c2 c2 | d2 f4 ed | e2 e2 f2 a2- | a2 g2 f4 | e2 e2 f2 a2- | a2 g2 f4 | e8 | %34
w: sou-|ve- nir me tra-|veil- * * *|le, qui ne me|_ veult ce|bien, qui ne me|_ veult ce|bien,|
 z4 z2 e2 | e2 e2 d2 A2 | c4 B3 G | A2 _B2 G4 | A4 z2 e2 | f3 e d2 c2 | B2 G3 F F2 | G2 e2 f2 f2 | %42
w: je|lan- guis en grant|pai- * *||ne sans|nul _ _ bien|es- * * pe-|rer, sans nul bien|
 ed d4 c2 | f4 e4 | z8 | z4 c4 | d4 e4 | A2 a2 g2 e2 | f2 d3 c c2 | d2 f2 e2 c2 | d3 c/d/ e2 c2 | %51
w: es- * * *|pe- rer||si-|non la|mort qui trop m'y|faict _ _ tar-|der, qui trop m'y|faict _ _ _ _|
 d4 e4 | d8- | d8- | d8 |] %55
w: _ tar-|der.|_||
V:4
 z8 | z8 | A8 | G4 _B4 | A4 z2 E2 | G2 G2 F2 D2 | F2 F2 E4 | z2 D2 F3 G | A2 B2 c2 A2 | B2 A4 GF | %10
w: ||Puis-|qu'ain- si|est que|con- ti- nu- e|mon mal- heur,|et que _|_ ri- gueur a|prins pos- ses- *|
 E2 D2 E4 | D3 E FG AB | c2 d2 A4 | _B3 A G2 F2 | c4 z2 _B2- | B2 A2 G4 | F4 z4 | z4 z2 F2- | %18
w: * si- on|en _ _ _ _ _|_ _ _|mon _ _ _|cueur, si|_ tres a-|vant,|si|
 F2 E2 D4 | C4 z2 c2 | d2 f2 e3 d |"^b""^b" c2 A2 B2 B2 | A2 A2 d2 d2 | c6 G2 | A2 F2 E4 | A4 z4 | %26
w: _ tres a-|vant que|plai- sirs n'y _|_ ont pla- c'en|riens, que plai- sirs|n'y ont|pla- * c'en|riens,|
 z8 | z2 D2 A2 A2 | G2 F2 _B4 | A4 D4 | F2 C2 D4 | z4 d4 | f2 c2 d2 d2 | A4 z4 | z2 A2 A2 A2 | %35
w: |sou- ve- nir|me tra- veil-|le, qui|ne me veult,|qui|ne me veult ce|bien,|je lan- guis|
 G2 E2 F3 D | A2 A2 E2 G2 | F2 D2 E4 | D4 z2 A2 |"^b" d3 c B2 A2 | G2 FE D4 | C4 z2 F2 | G4 A4 | %43
w: en grant pai- *|ne, je lan- guis|en grant pai-|ne sans|nul _ _ bien|es- * * pe-|rer si-|non ma|
 D2 d2 c2 A2 | B2 d3 c c2 | d2 B2 A4 | G2 F2 E4 | D2 F2 G2 A2 | D4 z4 |"^b" d4 c2 A2 | B4 A4 | %51
w: mort qui trop m'y|faict _ _ tar-|der, qui trop|m'y faict tar-|der, si- non la|mort|qui trop m'y|faict tar-|
 G2 B2 A4 | D2 G2 F2 D2 | G4 G4 | D8 |] %55
w: der, qui trop|m'y faict _ _|_ tar-|der.|

